wp-content/themes/sd-accesslasers/public/images/about/icons/about-4.svg

<?xml version="1.0" encoding="UTF-8"?>
<svg width="120px" height="120px" viewBox="0 0 120 120" version="1.1" xmlns="http://www.w3.org/2000/svg" xmlns:xlink="http://www.w3.org/1999/xlink">
    <!-- Generator: Sketch 55 (78076) - https://sketchapp.com -->
    <title>4</title>
    <desc>Created with Sketch.</desc>
    <g id="About" stroke="none" stroke-width="1" fill="none" fill-rule="evenodd">
        <g id="AL_About-Copy" transform="translate(-343.000000, -2696.000000)">
            <g id="Core-Values" transform="translate(343.000000, 1685.000000)">
                <g id="Icons" transform="translate(0.000000, 361.000000)">
                    <g id="1"></g>
                    <g id="4" transform="translate(0.000000, 650.000000)">
                        <g id="icon">
                            <rect id="Icon-120" x="0" y="0" width="120" height="120"></rect>
                            <g id="people" transform="translate(10.000000, 10.000000)" fill="#596975" fill-rule="nonzero">
                                <path d="M89.4763672,72.1033203 C90.5,70.6347656 91.1023438,68.8519531 91.1023438,66.9300781 L91.1023438,65.1505859 C91.1023438,60.1488281 87.0330078,56.0794922 82.03125,56.0794922 C77.0294922,56.0794922 72.9601562,60.1488281 72.9601562,65.1505859 L72.9601562,66.9300781 C72.9601562,68.8519531 73.5626953,70.6347656 74.5861328,72.1033203 C71.0417969,72.2089844 67.9201172,74.0210938 66.015625,76.7462891 C64.1111328,74.0210938 60.9894531,72.2089844 57.4451172,72.1033203 C58.46875,70.6347656 59.0710938,68.8519531 59.0710938,66.9300781 L59.0710938,65.1505859 C59.0710938,60.1488281 55.0017578,56.0794922 50,56.0794922 C44.9982422,56.0794922 40.9289062,60.1488281 40.9289062,65.1505859 L40.9289062,66.9300781 C40.9289062,68.8519531 41.5314453,70.6347656 42.5548828,72.1033203 C39.0105469,72.2089844 35.8888672,74.0210938 33.984375,76.7462891 C32.0798828,74.0210938 28.9582031,72.2089844 25.4138672,72.1033203 C26.4375,70.6347656 27.0398437,68.8519531 27.0398437,66.9300781 L27.0398437,65.1505859 C27.0398437,60.1488281 22.9705078,56.0794922 17.96875,56.0794922 C12.9669922,56.0794922 8.89765625,60.1488281 8.89765625,65.1505859 L8.89765625,66.9300781 C8.89765625,68.8519531 9.50019531,70.6347656 10.5236328,72.1033203 C4.69160156,72.2773438 0,77.0724609 0,82.9458984 L0,98.046875 C0,99.1255859 0.874414063,100 1.953125,100 L98.046875,100 C99.1255859,100 100,99.1255859 100,98.046875 L100,82.9458984 C100,77.0724609 95.3083984,72.2773438 89.4763672,72.1033203 Z M12.8039063,65.1505859 C12.8039063,62.3025391 15.1208984,59.9857422 17.96875,59.9857422 C20.8166016,59.9857422 23.1335938,62.3027344 23.1335938,65.1505859 L23.1335938,66.9300781 C23.1335938,69.778125 20.8166016,72.0949219 17.96875,72.0949219 C15.1208984,72.0949219 12.8039063,69.7779297 12.8039063,66.9300781 L12.8039063,65.1505859 Z M32.03125,96.09375 L3.90625,96.09375 L3.90625,82.9458984 C3.90625,79.1167969 7.02148438,76.0013672 10.8507813,76.0013672 L16.015625,76.0013672 L16.015625,81.3802734 C16.015625,82.4589844 16.8900391,83.3333984 17.96875,83.3333984 C19.0474609,83.3333984 19.921875,82.4589844 19.921875,81.3802734 L19.921875,76.0013672 L25.0867187,76.0013672 C28.9158203,76.0013672 32.03125,79.1166016 32.03125,82.9458984 L32.03125,96.09375 Z M44.8351562,65.1505859 C44.8351562,62.3025391 47.1521484,59.9857422 50,59.9857422 C52.8478516,59.9857422 55.1648437,62.3027344 55.1648437,65.1505859 L55.1648437,66.9300781 C55.1648437,69.778125 52.8478516,72.0949219 50,72.0949219 C47.1521484,72.0949219 44.8351562,69.7779297 44.8351562,66.9300781 L44.8351562,65.1505859 Z M64.0625,96.09375 L35.9375,96.09375 L35.9375,82.9458984 C35.9375,79.1167969 39.0527344,76.0013672 42.8820312,76.0013672 L48.0716797,76.0013672 L48.0716797,85.3683594 C48.0716797,86.4470703 48.9460937,87.3214844 50.0248047,87.3214844 C51.1035156,87.3214844 51.9779297,86.4470703 51.9779297,85.3683594 L51.9779297,76.0013672 L57.1179687,76.0013672 C60.9470703,76.0013672 64.0625,79.1166016 64.0625,82.9458984 L64.0625,96.09375 L64.0625,96.09375 Z M76.8664062,65.1505859 C76.8664062,62.3025391 79.1833984,59.9857422 82.03125,59.9857422 C84.8791016,59.9857422 87.1960938,62.3027344 87.1960938,65.1505859 L87.1960938,66.9300781 C87.1960938,69.778125 84.8791016,72.0949219 82.03125,72.0949219 C79.1833984,72.0949219 76.8664062,69.7779297 76.8664062,66.9300781 L76.8664062,65.1505859 Z M96.09375,96.09375 L67.96875,96.09375 L67.96875,82.9458984 C67.96875,79.1167969 71.0839844,76.0013672 74.9132812,76.0013672 L80.1277344,76.0013672 L80.1277344,85.3683594 C80.1277344,86.4470703 81.0021484,87.3214844 82.0808594,87.3214844 C83.1595703,87.3214844 84.0339844,86.4470703 84.0339844,85.3683594 L84.0339844,76.0013672 L89.1492187,76.0013672 C92.9783203,76.0013672 96.09375,79.1166016 96.09375,82.9458984 L96.09375,96.09375 L96.09375,96.09375 Z" id="Shape"></path>
                                <path d="M19.3496094,86.7050781 C18.9863281,86.3417969 18.4824219,86.1328125 17.96875,86.1328125 C17.4550781,86.1328125 16.9511719,86.3417969 16.5878906,86.7050781 C16.2246094,87.0683594 16.015625,87.5722656 16.015625,88.0859375 C16.015625,88.5996094 16.2246094,89.1035156 16.5878906,89.4667969 C16.9511719,89.8300781 17.4550781,90.0390625 17.96875,90.0390625 C18.4824219,90.0390625 18.9863281,89.8300781 19.3496094,89.4667969 C19.7128906,89.1035156 19.921875,88.5996094 19.921875,88.0859375 C19.921875,87.5722656 19.7128906,87.0683594 19.3496094,86.7050781 Z" id="Path"></path>
                                <path d="M87.5,0 L80.3859375,0 C79.3072266,0 78.4328125,0.874414063 78.4328125,1.953125 C78.4328125,3.03183594 79.3072266,3.90625 80.3859375,3.90625 L82.7873047,3.90625 L75.3486328,11.3449219 C74.5859375,12.1076172 74.5859375,13.3443359 75.3486328,14.1070312 C75.7300781,14.4884766 76.2298828,14.6791016 76.7296875,14.6791016 C77.2294922,14.6791016 77.7294922,14.4882812 78.1107422,14.1070312 L85.546875,6.67089844 L85.546875,9.0671875 C85.546875,10.1458984 86.4212891,11.0203125 87.5,11.0203125 C88.5787109,11.0203125 89.453125,10.1458984 89.453125,9.0671875 L89.453125,1.953125 C89.453125,0.874414063 88.5787109,0 87.5,0 Z" id="Path"></path>
                                <path d="M73.1796875,16.2753906 C72.8164062,15.9121094 72.3125,15.7050781 71.7988281,15.7050781 C71.2832031,15.7050781 70.78125,15.9121094 70.4179688,16.2753906 C70.0527344,16.640625 69.8457031,17.1425781 69.8457031,17.6582031 C69.8457031,18.171875 70.0527344,18.6757812 70.4179688,19.0390625 C70.78125,19.4023438 71.2832031,19.6113281 71.7988281,19.6113281 C72.3125,19.6113281 72.8164062,19.4023438 73.1796875,19.0390625 C73.5429688,18.6757812 73.7519531,18.171875 73.7519531,17.6582031 C73.7519531,17.1425781 73.5429688,16.640625 73.1796875,16.2753906 Z" id="Path"></path>
                                <path d="M68.4800781,20.9755859 C67.7173828,20.2130859 66.4804688,20.2130859 65.7179688,20.9755859 L54.2291016,32.4644531 L39.5580078,17.7935547 C38.7953125,17.0308594 37.5585938,17.0308594 36.7958984,17.7935547 L7.89785156,46.6917969 C7.13515625,47.4544922 7.13515625,48.6912109 7.89785156,49.4541016 C8.27910156,49.8353516 8.77910156,50.0259766 9.27890625,50.0259766 C9.77871094,50.0259766 10.2787109,49.8353516 10.6599609,49.4539063 L38.1769531,21.9369141 L52.8478516,36.6078125 C53.6105469,37.3705078 54.8472656,37.3705078 55.6101563,36.6078125 L68.4800781,23.7378906 C69.2427734,22.9751953 69.2427734,21.7384766 68.4800781,20.9755859 Z" id="Path"></path>
                                <path d="M16.7876953,7.8125 C12.2644531,7.8125 8.58457031,11.4923828 8.58457031,16.015625 C8.58457031,20.5388672 12.2644531,24.21875 16.7876953,24.21875 C21.3109375,24.21875 24.9908203,20.5388672 24.9908203,16.015625 C24.9908203,11.4923828 21.3109375,7.8125 16.7876953,7.8125 Z M16.7876953,20.3125 C14.4183594,20.3125 12.4908203,18.3849609 12.4908203,16.015625 C12.4908203,13.6462891 14.4183594,11.71875 16.7876953,11.71875 C19.1570313,11.71875 21.0845703,13.6462891 21.0845703,16.015625 C21.0845703,18.3849609 19.1570313,20.3125 16.7876953,20.3125 Z" id="Shape"></path>
                                <path d="M84.7933594,39.3828125 L88.8810547,35.2951172 C89.64375,34.5324219 89.64375,33.2957031 88.8810547,32.5328125 C88.1183594,31.7701172 86.8816406,31.7701172 86.11875,32.5328125 L82.03125,36.6207031 L77.9435547,32.5330078 C77.1808594,31.7703125 75.9441406,31.7703125 75.18125,32.5330078 C74.4185547,33.2957031 74.4185547,34.5324219 75.18125,35.2953125 L79.2689453,39.3830078 L75.18125,43.4707031 C74.41875,44.2333984 74.41875,45.4701172 75.1814453,46.2328125 C75.5628906,46.6142578 76.0626953,46.8048828 76.5625,46.8048828 C77.0623047,46.8048828 77.5623047,46.6142578 77.9435547,46.2328125 L82.03125,42.1451172 L86.1189453,46.2328125 C86.5003906,46.6142578 87.0001953,46.8048828 87.5,46.8048828 C87.9998047,46.8048828 88.4998047,46.6142578 88.8810547,46.2328125 C89.64375,45.4701172 89.64375,44.2333984 88.8810547,43.4705078 L84.7933594,39.3828125 Z" id="Path"></path>
                            </g>
                        </g>
                    </g>
                </g>
            </g>
        </g>
    </g>
</svg>

<svg width="120" height="120" viewBox="0 0 120 120" version="1.1" xmlns="http://www.w3.org/2000/svg"><g id="About" stroke="none" stroke-width="1" fill="none" fill-rule="evenodd"><g id="AL_About-Copy" transform="translate(-343 -2696)"><g id="Core-Values" transform="translate(343 1685)"><g id="Icons" transform="translate(0 361)"><g id="4" transform="translate(0 650)"><g id="icon"><path id="Icon-120" d="M0 0h120v120H0z"/><g id="people" transform="translate(10 10)" fill="#596975" fill-rule="nonzero"><path d="M89.476 72.103a9.017 9.017 0 0 0 1.626-5.173v-1.78c0-5.001-4.069-9.07-9.07-9.07-5.003 0-9.072 4.069-9.072 9.07v1.78a9.02 9.02 0 0 0 1.626 5.173 10.844 10.844 0 0 0-8.57 4.643 10.844 10.844 0 0 0-8.57-4.643 9.017 9.017 0 0 0 1.625-5.173v-1.78c0-5.001-4.07-9.07-9.071-9.07-5.002 0-9.071 4.069-9.071 9.07v1.78c0 1.922.602 3.705 1.626 5.173a10.844 10.844 0 0 0-8.57 4.643 10.844 10.844 0 0 0-8.571-4.643 9.017 9.017 0 0 0 1.626-5.173v-1.78c0-5.001-4.07-9.07-9.071-9.07-5.002 0-9.071 4.069-9.071 9.07v1.78c0 1.922.602 3.705 1.626 5.173C4.692 72.277 0 77.073 0 82.946v15.1C0 99.127.874 100 1.953 100h96.094A1.953 1.953 0 0 0 100 98.047V82.946c0-5.874-4.692-10.669-10.524-10.843zm-76.672-6.952a5.17 5.17 0 0 1 5.165-5.165 5.17 5.17 0 0 1 5.165 5.165v1.78a5.17 5.17 0 0 1-5.165 5.164 5.17 5.17 0 0 1-5.165-5.165v-1.78zM32.03 96.094H3.906V82.946A6.952 6.952 0 0 1 10.851 76h5.165v5.38a1.953 1.953 0 1 0 3.906 0V76h5.165a6.952 6.952 0 0 1 6.944 6.945v13.148zM44.835 65.15A5.17 5.17 0 0 1 50 59.986a5.17 5.17 0 0 1 5.165 5.165v1.78A5.17 5.17 0 0 1 50 72.094a5.17 5.17 0 0 1-5.165-5.165v-1.78zm19.227 30.943H35.939V82.946A6.952 6.952 0 0 1 42.882 76h5.19v9.367a1.953 1.953 0 1 0 3.906 0V76h5.14a6.952 6.952 0 0 1 6.944 6.945v13.148zM76.867 65.15a5.17 5.17 0 0 1 5.165-5.165 5.17 5.17 0 0 1 5.165 5.165v1.78a5.17 5.17 0 0 1-5.165 5.164 5.17 5.17 0 0 1-5.165-5.165v-1.78zm19.228 30.943H67.969V82.946A6.952 6.952 0 0 1 74.913 76h5.215v9.367a1.953 1.953 0 1 0 3.906 0V76h5.115a6.952 6.952 0 0 1 6.945 6.945v13.148z" id="Shape"/><path d="M19.35 86.705a1.968 1.968 0 0 0-1.381-.572c-.514 0-1.018.209-1.381.572a1.968 1.968 0 0 0-.572 1.38c0 .515.209 1.019.572 1.382s.867.572 1.38.572c.514 0 1.018-.209 1.382-.572.363-.363.572-.867.572-1.381s-.21-1.018-.572-1.38zM87.5 0h-7.114a1.953 1.953 0 1 0 0 3.906h2.401l-7.438 7.439a1.953 1.953 0 0 0 2.762 2.762l7.436-7.436v2.396a1.953 1.953 0 1 0 3.906 0V1.953A1.953 1.953 0 0 0 87.5 0zM73.18 16.275a1.966 1.966 0 0 0-1.381-.57c-.516 0-1.018.207-1.381.57a1.964 1.964 0 0 0-.572 1.383c0 .514.207 1.018.572 1.381.363.363.865.572 1.38.572.514 0 1.018-.209 1.382-.572.363-.363.572-.867.572-1.38 0-.516-.209-1.018-.572-1.384zm-4.7 4.701c-.763-.763-2-.763-2.762 0L54.229 32.464l-14.671-14.67c-.763-.763-2-.763-2.762 0L7.898 46.692a1.953 1.953 0 0 0 2.762 2.762l27.517-27.517 14.67 14.67c.764.764 2 .764 2.763 0l12.87-12.87a1.951 1.951 0 0 0 0-2.761z" id="Path"/><path d="M16.788 7.813c-4.524 0-8.203 3.68-8.203 8.203s3.68 8.203 8.203 8.203 8.203-3.68 8.203-8.203c0-4.524-3.68-8.203-8.203-8.203zm0 12.5a4.302 4.302 0 0 1-4.297-4.297 4.302 4.302 0 0 1 4.297-4.297 4.302 4.302 0 0 1 4.297 4.297 4.302 4.302 0 0 1-4.297 4.297z" id="Shape"/><path d="M84.793 39.383l4.088-4.088a1.953 1.953 0 0 0-2.762-2.762L82.03 36.62l-4.087-4.088a1.953 1.953 0 0 0-2.763 2.762l4.088 4.088-4.088 4.088a1.953 1.953 0 0 0 2.763 2.762l4.087-4.088 4.088 4.088c.381.381.881.572 1.381.572s1-.19 1.381-.572c.763-.763.763-2 0-2.762l-4.088-4.088z" id="Path"/></g></g></g></g></g></g></g></svg>
